images/border-mobile-5.svg

<svg width="375" height="100" viewBox="0 0 375 100" fill="none" xmlns="http://www.w3.org/2000/svg">
<path d="M697.499 17.8751L657.546 0.569995H324.869L249.174 33.3561H-354.382L-430.077 0.569995H-639V52.4624H333.607L440.99 98.974H942.322L1049.71 52.4624H1281V17.8751H697.499Z" fill="url(#paint0_radial_2129_11056)"/>
<path d="M657.546 0.569995H324.869L267.177 25.5358H462.888L570.271 72.0474H887.63L995.013 25.5358H1281V17.8751H697.499L657.546 0.569995Z" fill="url(#paint1_radial_2129_11056)"/>
<path d="M943.269 100H440.043L439.306 99.7036L332.659 53.4884H-639V51.4364H334.607L441.99 97.948H941.322L1048.7 51.4364H1281V53.4884H1050.65L943.269 100Z" fill="url(#paint2_radial_2129_11056)"/>
<path d="M249.701 33.9261H-354.961L-430.656 1.13999H-639V0H-429.55L-353.856 32.7861H248.595L324.29 0H658.073L698.078 17.3051H1281V18.4451H696.973L657.02 1.13999H325.395L249.701 33.9261Z" fill="url(#paint3_radial_2129_11056)"/>
<defs>
<radialGradient id="paint0_radial_2129_11056" cx="0" cy="0" r="1" gradientUnits="userSpaceOnUse" gradientTransform="translate(446.501 123.794) scale(1109.71 488.454)">
<stop stop-color="#7B8499"/>
<stop offset="1" stop-color="#151E28"/>
</radialGradient>
<radialGradient id="paint1_radial_2129_11056" cx="0" cy="0" r="1" gradientUnits="userSpaceOnUse" gradientTransform="translate(-45.4286 215.343) scale(1436.02 459.493)">
<stop stop-color="#7B8499"/>
<stop offset="1" stop-color="#151E28"/>
</radialGradient>
<radialGradient id="paint2_radial_2129_11056" cx="0" cy="0" r="1" gradientUnits="userSpaceOnUse" gradientTransform="translate(320.99 113.635) scale(866.149 772.515)">
<stop stop-color="#B8BFC9"/>
<stop offset="1" stop-color="#151E28"/>
</radialGradient>
<radialGradient id="paint3_radial_2129_11056" cx="0" cy="0" r="1" gradientUnits="userSpaceOnUse" gradientTransform="translate(320.99 16.9615) scale(1011.41 438.078)">
<stop stop-color="#3D4753"/>
<stop offset="1" stop-color="#0B1318"/>
</radialGradient>
</defs>
</svg>

<svg width="375" height="100" fill="none" xmlns="http://www.w3.org/2000/svg"><path d="M697.499 17.875L657.546.57H324.869l-75.695 32.786h-603.556L-430.077.57H-639v51.892h972.607L440.99 98.974h501.332l107.388-46.512H1281V17.875H697.499z" fill="url(#paint0_radial_2129_11056)"/><path d="M657.546.57H324.869l-57.692 24.966h195.711l107.383 46.511H887.63l107.383-46.511H1281v-7.66H697.499L657.546.57z" fill="url(#paint1_radial_2129_11056)"/><path d="M943.269 100H440.043l-.737-.296-106.647-46.216H-639v-2.052h973.607L441.99 97.948h499.332L1048.7 51.436H1281v2.052h-230.35L943.269 100z" fill="url(#paint2_radial_2129_11056)"/><path d="M249.701 33.926h-604.662L-430.656 1.14H-639V0h209.45l75.694 32.786h602.451L324.29 0h333.783l40.005 17.305H1281v1.14H696.973L657.02 1.14H325.395l-75.694 32.786z" fill="url(#paint3_radial_2129_11056)"/><defs><radialGradient id="paint0_radial_2129_11056" cx="0" cy="0" r="1" gradientUnits="userSpaceOnUse" gradientTransform="matrix(1109.71 0 0 488.454 446.501 123.794)"><stop stop-color="#7B8499"/><stop offset="1" stop-color="#151E28"/></radialGradient><radialGradient id="paint1_radial_2129_11056" cx="0" cy="0" r="1" gradientUnits="userSpaceOnUse" gradientTransform="matrix(1436.02 0 0 459.493 -45.429 215.343)"><stop stop-color="#7B8499"/><stop offset="1" stop-color="#151E28"/></radialGradient><radialGradient id="paint2_radial_2129_11056" cx="0" cy="0" r="1" gradientUnits="userSpaceOnUse" gradientTransform="matrix(866.149 0 0 772.515 320.99 113.635)"><stop stop-color="#B8BFC9"/><stop offset="1" stop-color="#151E28"/></radialGradient><radialGradient id="paint3_radial_2129_11056" cx="0" cy="0" r="1" gradientUnits="userSpaceOnUse" gradientTransform="matrix(1011.41 0 0 438.078 320.99 16.962)"><stop stop-color="#3D4753"/><stop offset="1" stop-color="#0B1318"/></radialGradient></defs></svg>
